X:112
T:B112-  Derry Down
S:(4th/4)
Q:1/4=120
L:1/4
M:3/4
K:Bb
f/2e/2|d2c/2B/2|c2B/2A/2|B3/2c/ d/2=e/2|f2f/2e/2|\
d2c/2B/2|c2B/2A/2|B3/2c/2 d/2=e/2|f2||d/2e/2|\
f3/2g/2f|f3/2g/2f|fga|b3/2 b/2a|\
gfe|d2c/2B/2|c3/2d/2e|A3/2A/2 G/2F/2|\
B3|f3|d2c/2d/2|B2|]
